X:1
T:Mazurka
M:3/4
L:1/8
R:Mazurka
O:French, composer unknown to transcriber
Z:Steve Mansfield 12/3/2000, updated May 2001 tradtunes
K:G
G>A | B2 d2 g>f | e2 d2 c>B | A>B c>^c d>e | d3 B G>A |
B2 d2 g>f | e2 d2 d>c | A>B c>A F>A |1 G3 F :|2 G4 F2 ||
|: E>G B>d ^c>d | D>F A>c B>A | E>F G>A B>c | A>F D2 G>F |
E>G B>d ^c>d | D>F A>c B>A | E>F G>A B>c |1 A4 G>F :|2 d4 ||
